src/renderer/assets/icon/folder-default-icon.svg

<svg width="14px" height="12px" viewBox="0 0 14 12" version="1.1" xmlns="http://www.w3.org/2000/svg" xmlns:xlink="http://www.w3.org/1999/xlink">
    <defs>
        <polygon id="path-1" points="0 0 13.9803234 0 13.9803234 11.6021204 0 11.6021204"></polygon>
        <radialGradient cx="46.0645498%" cy="50%" fx="46.0645498%" fy="50%" r="100%" gradientTransform="translate(0.460645,0.500000),scale(0.497693,1.000000),rotate(90.000000),translate(-0.460645,-0.500000)" id="radialGradient-3">
            <stop stop-color="#000000" stop-opacity="0.485592165" offset="0%"></stop>
            <stop stop-color="#000000" stop-opacity="0.297497736" offset="100%"></stop>
        </radialGradient>
        <linearGradient x1="50%" y1="0%" x2="50%" y2="100%" id="linearGradient-4">
            <stop stop-color="#000000" stop-opacity="0.339956975" offset="0%"></stop>
            <stop stop-color="#000000" stop-opacity="0.527655118" offset="100%"></stop>
        </linearGradient>
    </defs>
    <g id="Page-1" stroke="none" stroke-width="1" fill="none" fill-rule="evenodd" opacity="0.7">
        <g id="Playing-View-/-@p2---1920---10-Items-Copy-4" transform="translate(-479.000000, -976.000000)">
            <g id="hover" transform="translate(463.000000, 926.000000)">
                <g id="foldericon" transform="translate(16.000000, 50.000000)">
                    <mask id="mask-2" fill="white">
                        <use xlink:href="#path-1"></use>
                    </mask>
                    <g id="Clip-2"></g>
                    <path d="M13.9803234,4.39302587 L13.9803234,2.05474726 C13.9803234,1.64178209 13.6509751,1.51912537 13.4446667,1.51912537 L7.0660995,1.51912537 C6.75172637,1.51912537 6.44752239,1.40601095 6.20945274,1.20074726 L4.97543284,0.136468657 C4.87339303,0.0484636816 4.7430398,-1.39303483e-05 4.60829851,-1.39303483e-05 L0.535656716,-1.39303483e-05 C0.121124378,-1.39303483e-05 0,0.318399005 0,0.535642786 L0,3.71141393 L0,4.39302587 L0,11.0664985 C0,11.3233741 0.155950249,11.6021204 0.535656716,11.6021204 L13.4446667,11.6021204 C13.8599303,11.6021204 13.9803234,11.169792 13.9803234,11.0664985 L13.9802886,4.39302587 L13.9803234,4.39302587 Z" id="Path" fill="#FFFFFF" opacity="0.816755022" mask="url(#mask-2)"></path>
                    <path d="M0.905472637,10.5339761 L0.905472637,4.88058806 C0.905472637,4.76740398 0.9540199,4.64004577 1.09043284,4.64004577 L12.9138159,4.64004577 C12.9892836,4.64004577 13.0747811,4.75869751 13.0748159,4.84576219 C13.0748507,4.93282687 13.0747811,10.4585085 13.0748159,10.5339761 C13.0748507,10.6094438 13.0298905,10.6966478 12.9138159,10.6966478 L1.09043284,10.6966478 C0.974358209,10.6966478 0.905472637,10.6761701 0.905472637,10.5339761 L0.905472637,10.5339761 Z" id="Path" fill="url(#radialGradient-3)" mask="url(#mask-2)"></path>
                    <path d="M1.09043284,0.905458706 L4.32923881,0.905458706 C4.44823881,0.905458706 4.58252736,0.993289552 4.58252736,0.993289552 L5.61814428,1.88646866 C6.02055721,2.23347363 6.53479602,2.42459801 7.0660995,2.42459801 L12.9138159,2.42459801 C13.0066965,2.42459801 13.0748856,2.46893134 13.0748507,2.59952836 C13.0748159,2.73009055 13.0748507,3.37147861 13.0748507,3.49918507 C13.0748507,3.62685672 13.0821294,3.73457313 12.9486418,3.73457313 L1.09043284,3.73457313 C0.983064677,3.73457313 0.905472637,3.62396617 0.905472637,3.49918507 L0.905472637,1.02651343 C0.905472637,0.962677612 0.9540199,0.905458706 1.09043284,0.905458706 L1.09043284,0.905458706 Z" id="Path" fill="url(#linearGradient-4)" mask="url(#mask-2)"></path>
                </g>
            </g>
        </g>
    </g>
</svg>

<svg width="14" height="12" xmlns="http://www.w3.org/2000/svg" xmlns:xlink="http://www.w3.org/1999/xlink">
    <defs>
        <radialGradient cx="46.065%" cy="50%" fx="46.065%" fy="50%" r="100%" gradientTransform="matrix(0 1 -.4977 0 .71 .04)" id="c">
            <stop stop-opacity=".486" offset="0%"/>
            <stop stop-opacity=".297" offset="100%"/>
        </radialGradient>
        <linearGradient x1="50%" y1="0%" x2="50%" y2="100%" id="d">
            <stop stop-opacity=".34" offset="0%"/>
            <stop stop-opacity=".528" offset="100%"/>
        </linearGradient>
        <path id="a" d="M0 0h13.98v11.602H0z"/>
    </defs>
    <g fill="none" fill-rule="evenodd" opacity=".7">
        <mask id="b" fill="#fff">
            <use xlink:href="#a"/>
        </mask>
        <path d="M13.98 4.393V2.055c0-.413-.329-.536-.535-.536H7.066c-.314 0-.618-.113-.857-.318L4.975.136A.562.562 0 004.608 0H.536C.12 0 0 .318 0 .536v10.53c0 .257.156.536.536.536h12.909c.415 0 .535-.432.535-.536V4.393z" fill="#FFF" opacity=".817" mask="url(#b)"/>
        <path d="M.905 10.534V4.881c0-.114.049-.241.185-.241h11.824c.075 0 .16.119.16.206v5.688c0 .075-.044.163-.16.163H1.09c-.116 0-.185-.02-.185-.163z" fill="url(#c)" mask="url(#b)"/>
        <path d="M1.09.905h3.24c.118 0 .253.088.253.088l1.035.893a2.22 2.22 0 001.448.539h5.848c.093 0 .16.044.16.175v.9c0 .127.008.235-.125.235H1.09c-.107 0-.185-.111-.185-.236V1.027c0-.064.049-.122.185-.122z" fill="url(#d)" mask="url(#b)"/>
    </g>
</svg>
